X: 3
T: George Whites Favourite
R: reel
M: 4/4
L: 1/8
K: Dmaj
|BF~F2 BFAF|EDEF DB,A,B,|DF~F2 DEFA|BFAF E2FA|
BF~F2 BFAF|EDEF DB,A,B,|DEFA dBAF|EDEF D4:|
|dBAB defe|~d3e dBAB|ABde fded|Beed e2de|
fdBd ~A3B|dBAB defe|d2dA BdAF|EDEF D4:|

